X:3085
T:John Roarty's
O:england
R:reel
C:Ed Reavy
M:2/2
L:1/8
N:John had a taproom in West Philadelphia
N:in the thirties. Ed on occasion
N:played there for John and his friends.
N:John himself played the fiddle at the Philadelphia
N:dance halls (29th and Market Sts.) back in the twenties.
K:C
AG|EGAB cGAG|EGAB c2 AG|EGAB cGAc|d2 ed d^cAG|
EGAB cGAG|EGAB c2 AG|EGAB cGAc|d2 ed ^cde^f|
g2 ec Ace^f|gece abag|ecgc abag|ed^ce d=ca^f|
g2 ec Ace^f|gece abag|ecgc abag|ed^ce d=cAG||


